Obsidian/status/16s/insync-syncing.svg

<svg height="16" width="16" xmlns="http://www.w3.org/2000/svg"><path d="m11 12v.799l1.803 1.201-1.803 1.201v.799h3v-4z" fill="#d3dae3"/><circle cx="12.5" cy="9.5" fill="#d3dae3" r="1.5"/><path d="m4 11a10 10 0 0 1 10-10" fill="none" stroke="#d3dae3" stroke-width="2"/><path d="m8 11a6 6 0 0 1 6-6" fill="none" stroke="#d3dae3" stroke-width="2"/><g fill="#d3dae3"><path d="m6 12-3 2 3 2"/><path d="m8 16 3-2-3-2" opacity=".3"/></g></svg>

<svg xmlns="http://www.w3.org/2000/svg" width="16" height="16" version="1.1">
 <defs>
  <style id="style2" type="text/css">
   .ColorScheme-Text { color:#d3dae3; } .ColorScheme-Highlight { color:#5294e2; }
  </style>
 </defs>
 <path style="fill:currentColor" class="ColorScheme-Text" d="M 11,12 V 12.799 L 12.803,14 11,15.201 V 16 H 14 V 12 Z"/>
 <circle style="fill:currentColor" class="ColorScheme-Text" cx="12.5" cy="9.5" r="1.5"/>
 <path style="fill:none;stroke:currentColor;stroke-width:2" class="ColorScheme-Text" d="M 4,11 A 10,10 0 0 1 14,1"/>
 <path style="fill:none;stroke:currentColor;stroke-width:2" class="ColorScheme-Text" d="M 8,11 A 6,6 0 0 1 14,5"/>
 <path style="fill:currentColor" class="ColorScheme-Text" d="M 6,12 3,14 6,16"/>
 <path style="opacity:0.3;fill:currentColor" class="ColorScheme-Text" d="M 8,16 11,14 8,12"/>
</svg>
